flaticon/household/window-9.svg

<svg xmlns="http://www.w3.org/2000/svg" width="32" height="32" viewBox="0 0 24 24">
    <path d="M 23.199219 0.800781 L 23.601562 0.800781 C 23.820312 0.800781 24 0.621094 24 0.398438 C 24 0.179688 23.820312 0 23.601562 0 L 0.398438 0 C 0.179688 0 0 0.179688 0 0.398438 C 0 0.621094 0.179688 0.800781 0.398438 0.800781 L 0.800781 0.800781 L 0.800781 21.601562 L 0 21.601562 L 0 24 L 24 24 L 24 21.601562 L 23.199219 21.601562 Z M 1.601562 0.800781 L 22.398438 0.800781 L 22.398438 21.601562 L 22 21.601562 L 22 1.199219 L 2 1.199219 L 2 21.601562 L 1.601562 21.601562 Z M 12.113281 20.800781 L 12.398438 20.800781 C 12.621094 20.800781 12.800781 20.621094 12.800781 20.398438 C 12.800781 20.179688 12.621094 20 12.398438 20 L 11.199219 20 L 11.199219 19.601562 L 15.199219 19.601562 L 15.199219 20 L 14 20 C 13.777344 20 13.601562 20.179688 13.601562 20.398438 C 13.601562 20.621094 13.777344 20.800781 14 20.800781 L 14.289062 20.800781 L 14.085938 21.601562 L 12.3125 21.601562 Z M 13.503906 17.53125 C 13.394531 17.578125 13.292969 17.636719 13.199219 17.714844 C 13.109375 17.636719 13.007812 17.578125 12.898438 17.53125 C 12.789062 17.484375 12.671875 17.457031 12.554688 17.445312 C 12.542969 17.328125 12.515625 17.214844 12.46875 17.101562 C 12.421875 16.992188 12.363281 16.890625 12.285156 16.800781 C 12.363281 16.710938 12.421875 16.609375 12.46875 16.496094 C 12.515625 16.386719 12.542969 16.273438 12.554688 16.15625 C 12.671875 16.144531 12.785156 16.113281 12.898438 16.070312 C 13.007812 16.023438 13.109375 15.960938 13.199219 15.886719 C 13.289062 15.960938 13.390625 16.023438 13.503906 16.070312 C 13.613281 16.113281 13.726562 16.144531 13.84375 16.152344 C 13.855469 16.269531 13.886719 16.386719 13.929688 16.496094 C 13.976562 16.605469 14.039062 16.707031 14.113281 16.800781 C 14.039062 16.890625 13.976562 16.992188 13.929688 17.101562 C 13.886719 17.210938 13.855469 17.328125 13.847656 17.445312 C 13.730469 17.457031 13.613281 17.484375 13.503906 17.53125 Z M 15.113281 20.800781 L 16 20.800781 L 16 18.800781 L 13.601562 18.800781 L 13.601562 18.484375 C 13.640625 18.386719 13.710938 18.308594 13.808594 18.269531 C 13.914062 18.226562 14.027344 18.230469 14.160156 18.292969 C 14.3125 18.367188 14.488281 18.320312 14.605469 18.199219 C 14.726562 18.078125 14.75 17.882812 14.679688 17.730469 C 14.628906 17.628906 14.625 17.515625 14.671875 17.410156 C 14.714844 17.304688 14.796875 17.226562 14.933594 17.175781 C 15.09375 17.121094 15.183594 16.964844 15.183594 16.792969 C 15.183594 16.625 15.0625 16.46875 14.902344 16.414062 C 14.796875 16.375 14.714844 16.296875 14.671875 16.191406 C 14.625 16.085938 14.628906 15.972656 14.691406 15.839844 C 14.765625 15.6875 14.71875 15.511719 14.597656 15.394531 C 14.480469 15.273438 14.28125 15.25 14.128906 15.320312 C 14.027344 15.371094 13.914062 15.371094 13.808594 15.328125 C 13.703125 15.285156 13.625 15.203125 13.585938 15.097656 L 13.578125 15.066406 C 13.519531 14.90625 13.363281 14.816406 13.195312 14.816406 C 13.023438 14.816406 12.867188 14.9375 12.8125 15.097656 C 12.773438 15.203125 12.695312 15.285156 12.589844 15.328125 C 12.484375 15.375 12.371094 15.371094 12.238281 15.308594 C 12.085938 15.234375 11.910156 15.28125 11.792969 15.402344 C 11.671875 15.519531 11.648438 15.71875 11.722656 15.871094 C 11.769531 15.972656 11.773438 16.085938 11.730469 16.191406 C 11.6875 16.296875 11.605469 16.375 11.464844 16.421875 C 11.308594 16.480469 11.214844 16.636719 11.214844 16.804688 C 11.214844 16.976562 11.335938 17.132812 11.496094 17.1875 C 11.605469 17.226562 11.6875 17.304688 11.730469 17.410156 C 11.773438 17.515625 11.769531 17.628906 11.707031 17.761719 C 11.632812 17.914062 11.679688 18.089844 11.800781 18.207031 C 11.921875 18.328125 12.117188 18.351562 12.269531 18.277344 C 12.371094 18.230469 12.484375 18.226562 12.589844 18.269531 C 12.683594 18.308594 12.75 18.382812 12.800781 18.492188 L 12.800781 18.800781 L 10.398438 18.800781 L 10.398438 20.800781 L 11.289062 20.800781 L 11.488281 21.601562 L 6.65625 21.601562 L 5.019531 18 L 5.601562 18 C 5.820312 18 6 17.820312 6 17.601562 C 6 17.378906 5.820312 17.199219 5.601562 17.199219 L 5.28125 17.199219 C 5.945312 16.359375 6.535156 15.285156 7.046875 14 L 16.953125 14 C 17.464844 15.285156 18.054688 16.359375 18.71875 17.199219 L 18.398438 17.199219 C 18.179688 17.199219 18 17.378906 18 17.601562 C 18 17.820312 18.179688 18 18.398438 18 L 18.980469 18 L 17.34375 21.601562 L 14.914062 21.601562 Z M 2.800781 12.398438 L 11.601562 12.398438 L 11.601562 2 L 12.398438 2 L 12.398438 12.398438 L 21.199219 12.398438 L 21.199219 13.199219 L 2.800781 13.199219 Z M 10.800781 2 L 10.800781 11.601562 L 7.839844 11.601562 C 8.921875 7.625 9.144531 3.304688 9.191406 2 Z M 7.011719 11.601562 L 2.800781 11.601562 L 2.800781 2 L 8.390625 2 C 8.34375 3.324219 8.117188 7.675781 7.011719 11.601562 Z M 14.808594 2 C 14.855469 3.304688 15.078125 7.625 16.160156 11.601562 L 13.199219 11.601562 L 13.199219 2 Z M 21.199219 11.601562 L 16.988281 11.601562 C 15.882812 7.675781 15.65625 3.324219 15.609375 2 L 21.199219 2 Z M 21.199219 17.199219 L 19.773438 17.199219 C 19.035156 16.425781 18.378906 15.355469 17.8125 14 L 21.199219 14 Z M 6.1875 14 C 5.621094 15.355469 4.964844 16.425781 4.226562 17.199219 L 2.800781 17.199219 L 2.800781 14 Z M 2.800781 18 L 4.140625 18 L 5.777344 21.601562 L 2.800781 21.601562 Z M 19.859375 18 L 21.199219 18 L 21.199219 21.601562 L 18.222656 21.601562 Z M 23.199219 23.199219 L 0.800781 23.199219 L 0.800781 22.398438 L 23.199219 22.398438 Z M 23.199219 23.199219"/>
</svg>

<svg xmlns="http://www.w3.org/2000/svg" width="32" height="32" viewBox="0 0 24 24">
    <path d="M23.2.8h.402a.401.401 0 0 0 0-.8H.398a.4.4 0 0 0 0 .8h.403v20.802H0V24h24v-2.398h-.8zM1.601.8h20.796v20.802H22V1.199H2v20.403h-.398zm10.511 20h.285a.401.401 0 0 0 0-.8H11.2v-.398h4V20H14a.398.398 0 0 0-.398.398c0 .223.175.403.398.403h.29l-.204.8h-1.774zm1.39-3.269c-.108.047-.21.106-.304.184a1.17 1.17 0 0 0-.645-.27 1.2 1.2 0 0 0-.085-.343 1.13 1.13 0 0 0-.184-.301c.078-.09.137-.192.184-.305.047-.11.074-.223.086-.34.117-.011.23-.043.343-.086.11-.047.211-.11.301-.183.09.074.192.136.305.183.11.043.223.075.34.082.011.118.043.235.086.344.047.11.11.211.183.305-.074.09-.136.191-.183.3-.043.11-.075.227-.082.344a1.17 1.17 0 0 0-.344.086zm1.61 3.27H16v-2h-2.398v-.317a.374.374 0 0 1 .207-.214.418.418 0 0 1 .351.023.385.385 0 0 0 .445-.094.423.423 0 0 0 .075-.469.368.368 0 0 1-.008-.32.416.416 0 0 1 .262-.234c.16-.055.25-.211.25-.383a.415.415 0 0 0-.282-.379.392.392 0 0 1-.23-.223c-.047-.105-.043-.218.02-.351a.385.385 0 0 0-.094-.445.422.422 0 0 0-.47-.075.382.382 0 0 1-.32.008.392.392 0 0 1-.222-.23l-.008-.032a.396.396 0 0 0-.383-.25.416.416 0 0 0-.383.282.392.392 0 0 1-.222.23c-.106.047-.219.043-.352-.02a.385.385 0 0 0-.445.094.415.415 0 0 0-.07.47c.047.1.05.214.007.32-.043.105-.125.183-.265.23a.401.401 0 0 0-.25.383c0 .172.12.328.281.383.11.039.191.117.234.222a.418.418 0 0 1-.023.352.385.385 0 0 0 .094.445.416.416 0 0 0 .469.07.397.397 0 0 1 .32-.007c.094.039.16.113.21.222v.309h-2.402v2h.891l.2.8H6.655L5.02 18h.582a.4.4 0 0 0 0-.8h-.32c.663-.84 1.253-1.915 1.765-3.2h9.906c.512 1.285 1.102 2.36 1.766 3.2h-.32a.401.401 0 0 0 0 .8h.581l-1.636 3.602h-2.43zM2.801 12.398h8.8V2h.797v10.398H21.2v.801H2.801zM10.8 2v9.602H7.84C8.922 7.625 9.145 3.305 9.19 2zm-3.79 9.602h-4.21V2h5.59c-.047 1.324-.274 5.676-1.38 9.602zM14.81 2c.046 1.305.27 5.625 1.351 9.602H13.2V2zm6.39 9.602h-4.21C15.882 7.676 15.655 3.324 15.608 2h5.59zm0 5.597h-1.426c-.738-.773-1.394-1.844-1.96-3.199h3.386zM6.187 14c-.566 1.355-1.222 2.426-1.96 3.2H2.8V14zm-3.386 4h1.34l1.636 3.602H2.801zm17.058 0h1.34v3.602h-2.976zm3.34 5.2H.801v-.802h22.398zm0 0"/>
</svg>
